X:241
T:Dark Isle Waltz
M:3/4
L:1/8
K:D
B2|"Em"e4 fe|"Bm"d4 ed|"G"B4 {A}GB|"A7"A4 de|"D"f4 ed|{f}a4 de|"G"f4 {d}
af|"A7"[e4A4] B2|
"Em"e4 fe|"Bm"d4 ed|"G"B4 {A}GB|"D"A4 de|"Em"f4 {d} af|"A"e4 {d}fe|"G"d4
{e} dc|"D"d4fg||
"D"a4 {f}a2|f4 ed|{B}"G"G4 AB|"A7"A4 de|"D"f4 ed|{f}a4 de|"G"f4 {d}af|"A
"e4 B2|
"Em"e4 fe|"Bm"d4 ed|"G"B4 {A}GB|"D"A4 de|"Em"f4 {d} af|"A"e4 {d}fe|"G"d4
{e} dc|"D"d6|]
